assets/images/icon.svg

<?xml version="1.0" encoding="UTF-8" standalone="no" ?>
<!DOCTYPE svg PUBLIC "-//W3C//DTD SVG 1.1//EN" "http://www.w3.org/Graphics/SVG/1.1/DTD/svg11.dtd">
<svg xmlns="http://www.w3.org/2000/svg" xmlns:xlink="http://www.w3.org/1999/xlink" version="1.1" width="100" height="100" viewBox="0 0 100 100" xml:space="preserve">
<desc>Created with Fabric.js 5.2.4</desc>
<defs>
</defs>
<g transform="matrix(1 0 0 1 50 50)" id="29075556-c833-419b-8315-ff9d9e1b7f17"  >
<rect style="stroke: none; stroke-width: 1; stroke-dasharray: none; stroke-linecap: butt; stroke-dashoffset: 0; stroke-linejoin: miter; stroke-miterlimit: 4; fill: rgb(255,255,255); fill-rule: nonzero; opacity: 1; visibility: hidden;" vector-effect="non-scaling-stroke"  x="-50" y="-50" rx="0" ry="0" width="100" height="100" />
</g>
<g transform="matrix(Infinity NaN NaN Infinity 0 0)" id="45eb14be-d8cf-44fd-b52e-fe58019ce2e7"  >
</g>
<g transform="matrix(0.09 0 0 0.09 50 50)"  >
<g style="" vector-effect="non-scaling-stroke"   >
		<g transform="matrix(1 0 0 1 0 0)"  >
<rect style="stroke: none; stroke-width: 1; stroke-dasharray: none; stroke-linecap: butt; stroke-dashoffset: 0; stroke-linejoin: miter; stroke-miterlimit: 4; fill: rgb(255,255,255); fill-rule: nonzero; opacity: 1; visibility: hidden;" vector-effect="non-scaling-stroke"  x="-540" y="-540" rx="0" ry="0" width="1080" height="1080" />
</g>
		<g transform="matrix(1 0 0 1 0 0)"  >
<path style="stroke: rgb(0,0,0); stroke-width: 0; stroke-dasharray: none; stroke-linecap: butt; stroke-dashoffset: 0; stroke-linejoin: miter; stroke-miterlimit: 4; fill: rgb(5,148,103); fill-rule: nonzero; opacity: 1;" vector-effect="non-scaling-stroke"  transform=" translate(-256.68, -255.78)" d="M 161.35 242 C 164.25915271256704 238.90975033130357 168.2769087945052 237.1019537757247 172.51914272563604 236.97442419689318 C 176.76137665676686 236.84689461806164 180.88047089592314 238.41008205700285 183.97 241.32 C 257.6 310.68 331.48 352.88 418.41999999999996 374.39 C 430.15 342.39 431.18999999999994 307.16999999999996 421.05999999999995 272.81 C 407.61999999999995 227.22 376.31999999999994 187.5 330.56999999999994 157.95 C 289.7299999999999 131.57 248.90999999999994 124.69999999999999 209.41999999999993 118.05999999999999 C 159.59999999999994 109.67999999999999 112.53999999999994 101.75999999999999 67.62999999999994 54.20999999999999 C 62.62999999999994 48.94999999999999 55.819999999999936 46.83999999999999 49.30999999999994 48.54999999999998 C 41.86999999999994 50.54999999999998 36.87999999999994 56.429999999999986 34.48999999999994 66.14999999999998 C 28.889999999999937 88.89999999999998 32.48999999999994 152.65999999999997 48.23999999999994 219.96999999999997 C 73.52999999999994 328.10999999999996 113.88999999999994 382.83 143.29999999999995 409.69999999999993 C 181.29999999999995 444.38999999999993 230.91999999999996 463.5999999999999 280.22999999999996 463.5999999999999 C 289.52463510457704 463.61480553742484 298.80730618396547 462.93289523847085 308 461.55999999999983 C 349.7099999999999 455.2399999999999 384.42999999999995 434.2899999999999 403.99999999999994 403.8099999999999 C 314.50999999999993 380.52999999999986 238.05999999999995 336.2599999999999 161.99999999999994 264.64999999999986 C 158.90477414010226 261.73571992337224 157.09661859829419 257.70942685921693 156.97466715599248 253.45988813901113 C 156.85271571369074 249.2103494188053 158.42699598023685 245.0869886603705 161.34999999999994 241.99999999999986 z M 467.43 384.19 C 450.6 381.6 434.3 378.35 418.43 374.42 C 415.1672136618631 383.3273857318442 411.10742317185924 391.9222266043339 406.3 400.1 C 405.57 401.35 404.8 402.59000000000003 404.01 403.81 C 423.3124346107646 408.80668501924634 442.85801381570076 412.8119266596021 462.56999999999994 415.81 C 468.2794720497719 416.81349140263774 474.08514518033576 414.6502495429968 477.7458695432046 410.1553454037082 C 481.40659390607345 405.66044126441966 482.3496979928988 399.5370426555043 480.21111763166095 394.1489502174681 C 478.0725372704231 388.7608577794319 473.1868248392297 384.9509667203679 467.44 384.19 z" stroke-linecap="round" />
</g>
</g>
</g>
</svg>

<svg xmlns="http://www.w3.org/2000/svg" class="ionicon" viewBox="0 0 512 512"><path d="M161.35 242a16 16 0 0122.62-.68c73.63 69.36 147.51 111.56 234.45 133.07 11.73-32 12.77-67.22 2.64-101.58-13.44-45.59-44.74-85.31-90.49-114.86-40.84-26.38-81.66-33.25-121.15-39.89-49.82-8.38-96.88-16.3-141.79-63.85-5-5.26-11.81-7.37-18.32-5.66-7.44 2-12.43 7.88-14.82 17.6-5.6 22.75-2 86.51 13.75 153.82 25.29 108.14 65.65 162.86 95.06 189.73 38 34.69 87.62 53.9 136.93 53.9a186 186 0 0027.77-2.04c41.71-6.32 76.43-27.27 96-57.75-89.49-23.28-165.94-67.55-242-139.16a16 16 0 01-.65-22.65zM467.43 384.19c-16.83-2.59-33.13-5.84-49-9.77a157.71 157.71 0 01-12.13 25.68c-.73 1.25-1.5 2.49-2.29 3.71a584.21 584.21 0 0058.56 12 16 16 0 104.87-31.62z"/></svg>
